packages/AudioDataCollector/src/img/logo.svg

<svg width="180" height="237" viewBox="0 0 180 237" fill="none" xmlns="http://www.w3.org/2000/svg">
<path d="M60.0729 169.008C67.4714 169.008 73.469 162.96 73.469 155.499C73.469 152.02 72.714 152.764 70.9024 154.55C68.8284 156.593 65.3694 160.002 60.0729 160.002C54.7763 160.002 51.3174 156.593 49.2434 154.55C47.4318 152.764 46.6768 152.02 46.6768 155.499C46.6768 162.96 52.6744 169.008 60.0729 169.008Z" fill="#4E6F7D"/>
<path d="M119.927 169.008C112.529 169.008 106.531 162.96 106.531 155.499C106.531 152.02 107.286 152.764 109.098 154.55C111.172 156.593 114.631 160.002 119.927 160.002C125.224 160.002 128.683 156.593 130.757 154.55C132.568 152.764 133.323 152.02 133.323 155.499C133.323 162.96 127.326 169.008 119.927 169.008Z" fill="#4E6F7D"/>
<path fill-rule="evenodd" clip-rule="evenodd" d="M78.049 114.854C78.049 114.854 42.2114 73.4822 26.8307 80.8875C14.1038 87.0151 20.925 138.685 20.925 138.685C20.925 160.139 13.7666 170.427 0 185.5L18 196.5L10.5 218C32.5 221 43.5014 223.514 58.8755 230.416C68.3742 234.681 78.9134 237 90 237C101.087 237 111.626 234.681 121.124 230.416C136.499 223.514 147.5 221 169.5 218L162 196.5L180 185.5C166.233 170.427 159.075 160.139 159.075 138.685C159.075 138.685 165.896 87.0151 153.169 80.8875C137.789 73.4822 101.951 114.854 101.951 114.854C98.0008 114.223 94.0004 113.908 90 113.908C85.9996 113.908 81.9992 114.223 78.049 114.854ZM90 177.955C84.6762 178.017 80.4151 179.573 80.4151 184.273C80.4151 188.326 83.5826 191.73 87.8676 192.692C87.8482 192.817 87.8382 192.946 87.8382 193.077V206.071L87.8381 206.069L87.8378 206.067C87.8378 206.067 87.8365 206.071 87.8348 206.079C87.8243 206.128 87.7826 206.322 87.6167 206.674C87.4087 207.113 87.0657 207.671 86.5659 208.288C85.5676 209.521 84.0369 210.876 81.995 211.933C77.9978 214.002 71.8533 215.019 63.5761 211.309C62.3162 210.744 60.837 211.308 60.2723 212.568C59.7076 213.828 60.2712 215.307 61.5312 215.872C71.1155 220.167 78.8632 219.184 84.293 216.374C86.694 215.131 88.6062 213.549 90 211.969C91.3938 213.549 93.306 215.131 95.707 216.374C101.137 219.184 108.884 220.167 118.469 215.872C119.729 215.307 120.292 213.828 119.728 212.568C119.163 211.308 117.684 210.744 116.424 211.309C108.147 215.019 102.002 214.002 98.005 211.933C95.9631 210.876 94.4324 209.521 93.4341 208.288C92.9343 207.671 92.5913 207.113 92.3833 206.674C92.2174 206.322 92.1757 206.128 92.1652 206.079C92.1643 206.075 92.1637 206.072 92.1632 206.07L92.1622 206.067L92.1619 206.069L92.1618 206.071V193.077C92.1618 192.946 92.1518 192.817 92.1324 192.692C96.4174 191.73 99.5849 188.326 99.5849 184.273C99.5849 179.573 95.3238 178.017 90 177.955ZM57.2232 117.541L39.5274 101.438L38.4835 125.173L31.7922 112.909L26.3904 132.381C25.0322 122.388 21.4812 90.9289 29.8076 85.8909C37.9322 80.975 61.3564 105.24 69.5805 114.197L54.0806 105.17L57.2232 117.541ZM76.4459 155.551C76.4459 164.67 69.1155 172.062 60.0729 172.062C51.0303 172.062 43.6999 164.67 43.6999 155.551C43.6999 146.432 51.0303 139.04 60.0729 139.04C69.1155 139.04 76.4459 146.432 76.4459 155.551ZM122.777 117.541L140.473 101.438L141.517 125.173L148.208 112.909L153.61 132.381C154.968 122.388 158.519 90.9289 150.192 85.8909C142.068 80.975 118.644 105.24 110.42 114.197L125.919 105.17L122.777 117.541ZM103.554 155.551C103.554 164.67 110.885 172.062 119.927 172.062C128.97 172.062 136.3 164.67 136.3 155.551C136.3 146.432 128.97 139.04 119.927 139.04C110.885 139.04 103.554 146.432 103.554 155.551Z" fill="#4E6F7D"/>
<path fill-rule="evenodd" clip-rule="evenodd" d="M86.2649 10.165C84.7296 12.2796 84.0725 15.3416 85.3999 19.0078L79.103 21.2262C77.0872 15.6584 77.9346 10.3109 80.8289 6.32441C83.6929 2.37989 88.3982 0 93.6183 0C98.6835 0 102.988 1.84799 105.923 5.61741C108.754 9.25312 110 14.2773 110 20.117C110 28.4868 105.029 33.7254 101.068 37.8773C96.8612 42.286 93.9526 45.3847 93.9526 50.1277H87.2663C87.2663 42.681 91.9417 37.8008 95.6884 33.89C95.8606 33.7103 96.0309 33.5326 96.1986 33.3568C100.261 29.099 103.314 25.5983 103.314 20.117C103.314 15.0738 102.219 11.6884 100.62 9.63525C99.1259 7.71584 96.9111 6.59574 93.6183 6.59574C90.4804 6.59574 87.8307 8.00841 86.2649 10.165Z" fill="#4E6F7D"/>
<path d="M87.3333 56.0638H94V62H87.3333V56.0638Z" fill="#4E6F7D"/>
<path fill-rule="evenodd" clip-rule="evenodd" d="M136.304 22.6774C134.03 23.9647 132.162 26.4784 131.849 30.365L125.2 29.7718C125.675 23.8694 128.664 19.355 132.951 16.9281C137.193 14.5268 142.462 14.3129 147.212 16.478C151.82 18.5789 154.971 22.0458 156.078 26.6931C157.146 31.1755 156.196 36.2639 153.774 41.5776C150.302 49.1935 143.606 51.8984 138.28 54.0333C132.623 56.3002 128.692 57.9134 126.724 62.2292L120.64 59.4558C123.729 52.6799 130.007 50.1785 135.039 48.174C135.27 48.0819 135.498 47.9908 135.724 47.9004C141.186 45.7112 145.416 43.7919 147.69 38.8043C149.781 34.2154 150.19 30.6809 149.587 28.1497C149.023 25.7832 147.472 23.8454 144.476 22.4796C141.621 21.1781 138.624 21.3645 136.304 22.6774Z" fill="#4E6F7D"/>
<path d="M118.239 64.8851L124.305 67.6503L121.843 73.0518L115.777 70.2866L118.239 64.8851Z" fill="#4E6F7D"/>
<path fill-rule="evenodd" clip-rule="evenodd" d="M34.7361 28.8223C34.2159 31.3832 34.8878 34.442 37.616 37.2277L32.8061 41.8576C28.6628 37.6271 27.2163 32.4096 28.1969 27.5818C29.1672 22.8048 32.462 18.6879 37.2121 16.5232C41.8212 14.4227 46.5044 14.3192 50.7385 16.5321C54.8223 18.6664 58.0394 22.7216 60.4612 28.0355C63.932 35.6517 61.581 42.4801 59.6981 47.9008C57.6987 53.657 56.337 57.6829 58.3039 61.9988L52.2195 64.7716C49.1314 57.9954 51.3622 51.6157 53.1498 46.5033C53.2319 46.2683 53.3131 46.0361 53.3929 45.8065C55.3238 40.2475 56.6499 35.7961 54.3768 30.8083C52.2854 26.2192 49.8856 23.5924 47.5794 22.3871C45.4235 21.2604 42.9436 21.1595 39.9473 22.5251C37.0919 23.8263 35.2666 26.2106 34.7361 28.8223Z" fill="#4E6F7D"/>
<path d="M54.7423 70.1454L60.8087 67.3808L63.2704 72.7825L57.204 75.5471L54.7423 70.1454Z" fill="#4E6F7D"/>
</svg>

<svg width="180" height="237" fill="none" xmlns="http://www.w3.org/2000/svg"><path d="M60.073 169.008c7.398 0 13.396-6.048 13.396-13.509 0-3.479-.755-2.735-2.567-.949-2.074 2.043-5.533 5.452-10.83 5.452-5.296 0-8.755-3.409-10.829-5.452-1.811-1.786-2.566-2.53-2.566.949 0 7.461 5.997 13.509 13.396 13.509zM119.927 169.008c-7.398 0-13.396-6.048-13.396-13.509 0-3.479.755-2.735 2.567-.949 2.074 2.043 5.533 5.452 10.829 5.452 5.297 0 8.756-3.409 10.83-5.452 1.811-1.786 2.566-2.53 2.566.949 0 7.461-5.997 13.509-13.396 13.509z" fill="#4b95b4"/><path fill-rule="evenodd" clip-rule="evenodd" d="M78.049 114.854S42.211 73.482 26.831 80.888c-12.727 6.127-5.906 57.797-5.906 57.797 0 21.454-7.158 31.742-20.925 46.815l18 11-7.5 21.5c22 3 33.001 5.514 48.376 12.416C68.374 234.681 78.912 237 90 237s21.626-2.319 31.124-6.584C136.499 223.514 147.5 221 169.5 218l-7.5-21.5 18-11c-13.767-15.073-20.925-25.361-20.925-46.815 0 0 6.821-51.67-5.906-57.797-15.38-7.406-51.218 33.966-51.218 33.966A75.802 75.802 0 0090 113.908c-4 0-8 .315-11.951.946zM90 177.955c-5.324.062-9.585 1.618-9.585 6.318 0 4.053 3.168 7.457 7.453 8.419-.02.125-.03.254-.03.385v12.994-.004l-.003.012c-.01.049-.052.243-.218.595-.208.439-.551.997-1.051 1.614-.998 1.233-2.53 2.588-4.571 3.645-3.997 2.069-10.142 3.086-18.419-.624a2.5 2.5 0 10-2.045 4.563c9.584 4.295 17.332 3.312 22.762.502 2.401-1.243 4.313-2.825 5.707-4.405 1.394 1.58 3.306 3.162 5.707 4.405 5.43 2.81 13.177 3.793 22.762-.502a2.5 2.5 0 00-2.045-4.563c-8.277 3.71-14.422 2.693-18.419.624-2.042-1.057-3.573-2.412-4.57-3.645-.5-.617-.844-1.175-1.052-1.614a2.712 2.712 0 01-.218-.595l-.002-.009v-.003l-.001.002v.002-12.994c0-.131-.01-.26-.03-.385 4.285-.962 7.453-4.366 7.453-8.419 0-4.7-4.261-6.256-9.585-6.318zm-32.777-60.414l-17.696-16.103-1.044 23.735-6.69-12.264-5.403 19.472c-1.358-9.993-4.909-41.452 3.418-46.49 8.124-4.916 31.548 19.349 39.773 28.306l-15.5-9.027 3.142 12.371zm19.223 38.01c0 9.119-7.33 16.511-16.373 16.511-9.043 0-16.373-7.392-16.373-16.511s7.33-16.511 16.373-16.511c9.042 0 16.373 7.392 16.373 16.511zm46.331-38.01l17.696-16.103 1.044 23.735 6.691-12.264 5.402 19.472c1.358-9.993 4.909-41.452-3.418-46.49-8.124-4.916-31.548 19.349-39.772 28.306l15.499-9.027-3.142 12.371zm-19.223 38.01c0 9.119 7.331 16.511 16.373 16.511 9.043 0 16.373-7.392 16.373-16.511s-7.33-16.511-16.373-16.511c-9.042 0-16.373 7.392-16.373 16.511zM86.265 10.165c-1.535 2.115-2.192 5.177-.865 8.843l-6.297 2.218c-2.016-5.568-1.168-10.915 1.726-14.902C83.693 2.38 88.399 0 93.619 0c5.064 0 9.369 1.848 12.304 5.617 2.831 3.636 4.077 8.66 4.077 14.5 0 8.37-4.971 13.608-8.932 17.76-4.207 4.409-7.115 7.508-7.115 12.25h-6.687c0-7.446 4.676-12.326 8.422-16.237.173-.18.343-.357.51-.533 4.063-4.258 7.116-7.759 7.116-13.24 0-5.043-1.095-8.429-2.694-10.482-1.494-1.92-3.709-3.04-7.002-3.04-3.138 0-5.787 1.413-7.353 3.57z" fill="#4b95b4"/><path d="M87.333 56.064H94V62h-6.667v-5.936z" fill="#4b95b4"/><path fill-rule="evenodd" clip-rule="evenodd" d="M136.304 22.677c-2.274 1.288-4.142 3.801-4.455 7.688l-6.649-.593c.475-5.903 3.464-10.417 7.751-12.844 4.242-2.401 9.511-2.615 14.261-.45 4.608 2.1 7.759 5.568 8.866 10.215 1.068 4.482.118 9.57-2.304 14.885-3.472 7.615-10.168 10.32-15.494 12.455-5.657 2.267-9.588 3.88-11.556 8.196l-6.084-2.773c3.089-6.776 9.367-9.278 14.399-11.282l.685-.274c5.462-2.189 9.692-4.108 11.966-9.096 2.091-4.589 2.5-8.123 1.897-10.654-.564-2.367-2.115-4.305-5.111-5.67-2.855-1.302-5.852-1.116-8.172.197z" fill="#4b95b4"/><path d="M118.239 64.885l6.066 2.765-2.462 5.402-6.066-2.765 2.462-5.402z" fill="#4b95b4"/><path fill-rule="evenodd" clip-rule="evenodd" d="M34.736 28.822c-.52 2.561.152 5.62 2.88 8.406l-4.81 4.63c-4.143-4.23-5.59-9.448-4.61-14.276.971-4.777 4.266-8.894 9.016-11.059 4.61-2.1 9.292-2.204 13.526.01 4.084 2.133 7.301 6.189 9.723 11.502 3.471 7.617 1.12 14.445-.763 19.866-2 5.756-3.361 9.782-1.394 14.098l-6.085 2.773c-3.088-6.777-.857-13.156.93-18.269l.244-.697c1.93-5.558 3.257-10.01.984-14.998-2.092-4.589-4.491-7.216-6.798-8.42-2.156-1.128-4.635-1.229-7.632.137-2.855 1.301-4.68 3.686-5.21 6.297z" fill="#4b95b4"/><path d="M54.742 70.145l6.067-2.764 2.461 5.401-6.066 2.765-2.462-5.402z" fill="#4b95b4"/></svg>
